X:294
T:Marche Duvernay
M:6/8
K:G % transposed from D
b2 b b2 b|bag gfe|d2 d d2 d|dgg gag|
f2 f f2 f|fba be'd'|b2 b b2 b|bde fed|
b2 b b2 b|bag gfe|d2 d d2 d|dgg gag|
f2 f f2 f|fd'd' d'c'a|gde fed|g2 d d2 e||
fed fed|fed cBA|GBd gBe|d2 d d2 g|
fed fed|fed cBA|GBd g2 B|d3 g3|
fed fed|fed cBA|GBd gBe|d2 d d2 g|
fed fed|fed cBA|Gde fed|G3 d3||
